X:7
T:Caiptean Calum Mac Thorcadail
Z:Jack Campin, http://www.campin.me.uk/
B:Captain Eoghan Anderson: Measan Milis as an Lios (The Sweet Lapdog of Lismore), 1925
F:http://www.campin.me.uk/Music/Lismore.abc
I:last edit 17-12-2013
M:4/4
L:1/8
Q:1/4=90
K:DDor
C|C>C c>c c>c c>G|GG  G>F E2 D
D|D>D d>d e>d d>c|c>A d>c A2 c
G|G>A c>c d>c c>A|GG  A>c d2 d
d|c>A GE  G>A A>G|G>G EE  D2 D|]

